public/cat-success.svg

<svg width="1080" height="1080" viewBox="0 0 1080 1080" fill="none" xmlns="http://www.w3.org/2000/svg">
  <path d="M338.418 989.491c-18.242 5.547-25.5 5.5-38-2.5-60.257 21.099-59.001-45-22.5-71-19.5-77 21.836-126.671 34.5-141.5 17.5-20.491 2.896-57.415 2.896-57.415S189.918 708 104.097 664.232c-48.884 5.977-72.203-33.576-51.602-53.337-20.331-23.845-15.105-40.812 10.258-51.735-1.787-25.82 28.254-34.125 45.033-21.623 18.506-18.943 36.568-13.945 61.329 18.935 64.536 28.112 99.037 32.38 158.802 27.519-18.366-4.684-35.009-10.429-50-17.109-125.817-56.062-135.335-178.019-71-292.391-21-248.5 38-300 181-148 65.5-29 175-23.5 241 3 172.5-129.5 221-102.5 172.5 157 52.047 138.194 26.274 228.201-64 277.051 77.229 93.39 135.823 184.553 128.543 312.449 106.457-55.5 0-169-1.543-244.5-2.426-118.693 69-184.5 130-149 61.003 35.5-7.771 105.737-12 143.501-7 62.5 27.333 119.386 30.503 170.499 7 113-119.503 197.5-185.003 169.514-44.383 39.785-119.881 50.945-178 42.985-17.468 5.03-26.211 5.07-38.5-2-14.084 1.63-24.386-6.4-28.904-17.999l-40.096.589c-11.897 14.38-26.192 22.64-44.5 21.41-19.396 2.35-30.084 2.4-48-5-16.528-1.77-25.932-12.444-29.432-25.99-16.432.375-24.543-1.249-37.921-6-11.015 10.129-29.637 14.262-44.146 15.491" fill="#fff"/>
  <path d="M501 384c-57.804-112.98-12.629-185.376 24.5-280 31.089 1.279 51.802 5.252 97.5 21C815.681-20.153 834.867 47.05 798.5 285c14 26 31 88.5 22 143-52.52 9.517-72.292 8.009-121 7-98.486 53.07-165.5 13.5-198.5-51M385 239.5c30-53 34.336-70.313 0-116.5C240.509-7.507 189.927-.715 199.5 273.5c-1.267 9.007-30.397 65.252-28.5 72.5 6.731 25.714 60.163-8.308 74-19 55-42.5 97.048-11.618 140-87.5m112.998 589c3.502-6.999 56.501 8.501 107-4.5l-13.499 39.501c-57.499 2.5-106.067-9.885-93.501-35.001M251.5 651c3.838 5.242.19 12.857 14.5 63l-36.335-6.161C225.67 650.424 245.461 642.751 251.5 651m430.102 28c-10.791-20.136 35.001-29 75.5-87l29.5 44 18.5 27.5 25 50 17.5 39 13.5 65.5c-73 26.5-128.019 14.5-122.5-12 4.214-20.234 53-11 109-53.5l-17.5-39c-24.5 25.5-85.644 42.569-96 11.5-5-15 46-21.5 71-61.5l-18.5-27.5c-27 52-96.426 59-105 43M857.5 906l6-36 32.5-23.5c12.842 36.056 19.635 58.648 47.5 84-19.603 15.976-31.671 24.133-59.5 34-18.343-19.174-23.834-32.133-26.5-58.5M994 865c-21.964-.677-58.229-9.917-87-42 1.971-26.532.99-38.637-5.5-58 36.127 17.408 58.863 19.52 104.5 9.5 4.43 35.697 1.63 55.49-12 90.5m-7-146c-40.358 9.397-62.666 11.319-101 0l-24.5-69c42.933 14.406 68.336 14.336 115.5 3zM859.5 599c31.148 21.486 81 23 116.5 23l17-45.5c-41.5-2.5-86.5-14-113-44.5-15.873 25.913-13.503 38.689-20.5 67" fill="#797979"/>
  <path d="m467.5 479.5-30-20.5-25 10 1 11 34 9z" fill="#ffa1a9"/>
  <path d="M438 424.942c-1.755 9.743-1.948 16.407-1.5 29.5m0 0c19 31.5 59.5 20 66-1.5m-66 1.5c-22 27-56.5 13-56.5-7.5" stroke="#000" stroke-width="12" stroke-linecap="round"/>
  <path d="M471 405.942c-3.691-11.536-52.329-12-57-6-8.881 11.408 13.138 33.237 24 33.5 7.653.186 37-15 33-27.5" fill="#000"/>
  <path d="M769 252c-18.186-33.677-64.008-72.013-92.5-86 7-20.5 76.66-79.314 92.5-68 18.9 13.5 12.138 127.419 0 154m-541-23.5c18.186-33.677 79.008-68.513 107.5-82.5-7-20.5-71.66-81.314-87.5-70-22.4 16-32.138 125.919-20 152.5" fill="#ffa1a9"/>
  <circle cx="554.8" cy="336.8" r="32.8" fill="#353535"/>
  <circle cx="340.8" cy="336.8" r="32.8" fill="#353535"/>
  <path d="M375.418 919.991c17.785 26.678 14.526 43.544 3.146 54.009m-44.146 15.491c-18.242 5.547-25.5 5.5-38-2.5m38 2.5c-6.183-12.415-8.773-19.114-6.5-29m6.5 29c14.509-1.229 33.131-5.362 44.146-15.491m-82.146 12.991c-60.257 21.099-59.001-45-22.5-71-19.5-77 21.836-126.671 34.5-141.5 17.5-20.491 2.896-57.415 2.896-57.415S185.918 708 100.097 664.232c-48.884 5.977-72.203-33.576-51.602-53.337-20.331-23.845-15.105-40.812 10.258-51.735-1.787-25.82 28.254-34.125 45.033-21.623 18.506-18.943 36.568-13.945 61.329 18.935 64.536 28.112 99.037 32.38 158.802 27.519-18.366-4.684-35.009-10.429-50-17.109-125.817-56.062-135.335-178.019-71-292.391-21-248.5 38-300 181-148 65.5-29 175-23.5 241 3 172.5-129.5 221-102.5 172.5 157 52.047 138.194 26.274 228.201-64 277.051M296.418 986.991c-8.319-12.017-10.372-18.798-7.5-31m308.999-353.499c54.588-6.912 100.024-19.753 135.5-38.95m-274 224.949c-3.738 42.855-7.87 70.405-21.5 130.5-18.195 12.433-26.826 40.131-21.432 61.009m29.432 25.99c17.916 7.4 28.604 7.35 48 5m-48-5c-6-21.498-4.382-32.588 2-40.998m-2 40.998c-16.527-1.77-25.932-12.444-29.432-25.99m77.432 30.99c-7-20.999-4-28.499-1-38.999m1 38.999c18.308 1.23 32.603-7.03 44.5-21.41m147-253.589c-42.305 9.231-66.121 52.997-84.902 103m0 0c-5.098 31 3.402 61.001 19.402 88.501m-19.402-88.501c-20.787 55.348-35.406 118.336-62.098 150.589m81.5-62.088s23.84-2.419 26-1.001m-26 1.001c-39.292 9.263-49.399 40.977-41.404 61.499m28.904 17.999c12.289 7.07 21.032 7.03 38.5 2m-38.5-2c-6.423-24.954-4.655-31.693 2-38.999m-2 38.999c-14.084 1.63-24.386-6.4-28.904-17.999m67.404 19.999c-5.858-17.7-4.987-25.094-.5-36.499m.5 36.499c58.119 7.96 133.617-3.2 178-42.985m-90.5-402.463c77.229 93.39 135.823 184.553 128.543 312.449M538.417 989.58l40.096-.589m283.447-113a399 399 0 0 1-1.543 19.001c-3.143 29.906-16.737 53.298-36.5 71.013m38.043-90.014c106.457-55.5 0-169-1.543-244.5-2.426-118.693 69-184.5 130-149 61.003 35.5-7.771 105.737-12 143.501-7 62.5 27.333 119.386 30.503 170.499 7 113-119.503 197.5-185.003 169.514M378.564 974c13.378 4.751 21.489 6.375 37.921 6" stroke="#000" stroke-width="14" stroke-linecap="round"/>
  <ellipse cx="66.187" cy="587.719" rx="14.5" ry="11.5" transform="rotate(9.423 66.187 587.719)" fill="#ffc9c9"/>
  <ellipse cx="68.93" cy="630.047" rx="14.5" ry="11.5" transform="rotate(2.197 68.93 630.047)" fill="#ffc9c9"/>
  <ellipse cx="88.391" cy="561.378" rx="14.5" ry="11.5" transform="rotate(44.822 88.391 561.378)" fill="#ffc9c9"/>
  <ellipse cx="126.676" cy="555.858" rx="14.5" ry="11.5" transform="rotate(75.948 126.676 555.858)" fill="#ffc9c9"/>
  <path d="M133.999 589c-10.471-12.5-32.78-11.258-40.5 4-7.334 14.495-5.999 31 9.5 38s39.796-31.5 31-42" fill="#ffc9c9"/>
  <path d="M405 468.5c13.5 23 54.5 28.5 67.5 5" stroke="#000" stroke-width="14"/>
</svg>

<svg width="1080" height="1080" viewBox="0 0 1080 1080" fill="none" xmlns="http://www.w3.org/2000/svg">
<path d="M338.418 989.491C320.176 995.038 312.918 994.991 300.418 986.991C240.161 1008.09 241.417 941.991 277.918 915.991C258.418 838.991 299.754 789.32 312.418 774.491C329.918 754 315.314 717.076 315.314 717.076C315.314 717.076 189.918 708 104.097 664.232C55.2133 670.209 31.8941 630.656 52.4951 610.895C32.1638 587.05 37.3898 570.083 62.7533 559.16C60.9659 533.34 91.0065 525.035 107.786 537.537C126.292 518.594 144.354 523.592 169.115 556.472C233.651 584.584 268.152 588.852 327.917 583.991C309.551 579.307 292.908 573.562 277.917 566.882C152.1 510.82 142.582 388.863 206.917 274.491C185.917 25.9915 244.917 -25.5084 387.917 126.491C453.417 97.4915 562.917 102.991 628.917 129.491C801.417 -0.00854492 849.917 26.9914 801.417 286.491C853.464 424.685 827.691 514.692 737.417 563.542C814.646 656.932 873.24 748.095 865.96 875.991C972.417 820.491 865.96 706.991 864.417 631.491C861.991 512.798 933.417 446.991 994.417 482.491C1055.42 517.991 986.646 588.228 982.417 625.992C975.417 688.492 1009.75 745.378 1012.92 796.491C1019.92 909.491 893.417 993.991 827.917 966.005C783.534 1005.79 708.036 1016.95 649.917 1008.99C632.449 1014.02 623.706 1014.06 611.417 1006.99C597.333 1008.62 587.031 1000.59 582.513 988.991L542.417 989.58C530.52 1003.96 516.225 1012.22 497.917 1010.99C478.521 1013.34 467.833 1013.39 449.917 1005.99C433.389 1004.22 423.985 993.546 420.485 980C404.053 980.375 395.942 978.751 382.564 974C371.549 984.129 352.927 988.262 338.418 989.491Z" fill="white"/>
<path d="M501 384C443.196 271.02 488.371 198.624 525.5 104C556.589 105.279 577.302 109.252 623 125C815.681 -20.1528 834.867 47.0503 798.5 285C812.5 311 829.5 373.5 820.5 428C767.98 437.517 748.208 436.009 699.5 435C601.014 488.07 534 448.5 501 384Z" fill="#797979"/>
<path d="M385 239.5C415 186.5 419.336 169.187 385 123C240.509 -7.50658 189.927 -0.715363 199.5 273.5C198.233 282.507 169.103 338.752 171 346C177.731 371.714 231.163 337.692 245 327C300 284.5 342.048 315.382 385 239.5Z" fill="#797979"/>
<path d="M497.998 828.5C501.5 821.501 554.499 837.001 604.998 824L591.499 863.501C534 866.001 485.432 853.616 497.998 828.5Z" fill="#797979"/>
<path d="M251.5 651C255.338 656.242 251.69 663.857 266 714L229.665 707.839C225.67 650.424 245.461 642.751 251.5 651Z" fill="#797979"/>
<path d="M681.602 679C670.811 658.864 716.603 650 757.102 592L786.602 636L805.102 663.5L830.102 713.5L847.602 752.5L861.102 818C788.102 844.5 733.083 832.5 738.602 806C742.816 785.766 791.602 795 847.602 752.5L830.102 713.5C805.602 739 744.458 756.069 734.102 725C729.102 710 780.102 703.5 805.102 663.5L786.602 636C759.602 688 690.176 695 681.602 679Z" fill="#797979"/>
<path d="M857.5 906L863.5 870L896 846.5C908.842 882.556 915.635 905.148 943.5 930.5C923.897 946.476 911.829 954.633 884 964.5C865.657 945.326 860.166 932.367 857.5 906Z" fill="#797979"/>
<path d="M994 865C972.036 864.323 935.771 855.083 907 823C908.971 796.468 907.99 784.363 901.5 765C937.627 782.408 960.363 784.52 1006 774.5C1010.43 810.197 1007.63 829.99 994 865Z" fill="#797979"/>
<path d="M987 719C946.642 728.397 924.334 730.319 886 719L861.5 650C904.433 664.406 929.836 664.336 977 653L987 719Z" fill="#797979"/>
<path d="M859.5 599C890.648 620.486 940.5 622 976 622L993 576.5C951.5 574 906.5 562.5 880 532C864.127 557.913 866.497 570.689 859.5 599Z" fill="#797979"/>
<path d="M467.5 479.5L437.5 459L412.5 469L413.5 480L447.5 489L467.5 479.5Z" fill="#FFA1A9"/>
<path d="M438 424.942C436.245 434.685 436.052 441.349 436.5 454.442M436.5 454.442C455.5 485.942 496 474.442 502.5 452.942M436.5 454.442C414.5 481.442 380 467.442 380 446.942" stroke="black" stroke-width="12" stroke-linecap="round"/>
<path d="M471 405.942C467.309 394.406 418.671 393.942 414 399.942C405.119 411.35 427.138 433.179 438 433.442C445.653 433.628 475 418.442 471 405.942Z" fill="black"/>
<path d="M769 252C750.814 218.323 704.992 179.987 676.5 166C683.5 145.5 753.16 86.6856 769 98C787.9 111.5 781.138 225.419 769 252Z" fill="#FFA1A9"/>
<path d="M228 228.5C246.186 194.823 307.008 159.987 335.5 146C328.5 125.5 263.84 64.6855 248 75.9999C225.6 92 215.862 201.919 228 228.5Z" fill="#FFA1A9"/>
<circle cx="554.8" cy="336.8" r="32.8002" fill="#353535"/>
<circle cx="340.8" cy="336.8" r="32.8002" fill="#353535"/>
<path d="M375.418 919.991C393.203 946.669 389.944 963.535 378.564 974M334.418 989.491C316.176 995.038 308.918 994.991 296.418 986.991M334.418 989.491C328.235 977.076 325.645 970.377 327.918 960.491M334.418 989.491C348.927 988.262 367.549 984.129 378.564 974M296.418 986.991C236.161 1008.09 237.417 941.991 273.918 915.991C254.418 838.991 295.754 789.32 308.418 774.491C325.918 754 311.314 717.076 311.314 717.076C311.314 717.076 185.918 708 100.097 664.232C51.2133 670.209 27.8941 630.656 48.4951 610.895C28.1638 587.05 33.3898 570.083 58.7533 559.16C56.9659 533.34 87.0065 525.035 103.786 537.537C122.292 518.594 140.354 523.592 165.115 556.472C229.651 584.584 264.152 588.852 323.917 583.991C305.551 579.307 288.908 573.562 273.917 566.882C148.1 510.82 138.582 388.863 202.917 274.491C181.917 25.9915 240.917 -25.5084 383.917 126.491C449.417 97.4915 558.917 102.991 624.917 129.491C797.417 -0.00854492 845.917 26.9914 797.417 286.491C849.464 424.685 823.691 514.692 733.417 563.542M296.418 986.991C288.099 974.974 286.046 968.193 288.918 955.991M597.917 602.492C652.505 595.58 697.941 582.739 733.417 563.542M459.417 788.491C455.679 831.346 451.547 858.896 437.917 918.991C419.722 931.424 411.091 959.122 416.485 980M445.917 1005.99C463.833 1013.39 474.521 1013.34 493.917 1010.99M445.917 1005.99C439.917 984.492 441.535 973.402 447.917 964.992M445.917 1005.99C429.39 1004.22 419.985 993.546 416.485 980M493.917 1010.99C486.917 989.991 489.917 982.491 492.917 971.991M493.917 1010.99C512.225 1012.22 526.52 1003.96 538.417 989.58M685.417 735.991C643.112 745.222 619.296 788.988 600.515 838.991M600.515 838.991C595.417 869.991 603.917 899.992 619.917 927.492M600.515 838.991C579.728 894.339 565.109 957.327 538.417 989.58M619.917 927.492C619.917 927.492 643.757 925.073 645.917 926.491M619.917 927.492C580.625 936.755 570.518 968.469 578.513 988.991M607.417 1006.99C619.706 1014.06 628.449 1014.02 645.917 1008.99M607.417 1006.99C600.994 982.036 602.762 975.297 609.417 967.991M607.417 1006.99C593.333 1008.62 583.031 1000.59 578.513 988.991M645.917 1008.99C640.059 991.29 640.93 983.896 645.417 972.491M645.917 1008.99C704.036 1016.95 779.534 1005.79 823.917 966.005M733.417 563.542C810.646 656.932 869.24 748.095 861.96 875.991M538.417 989.58L578.513 988.991M861.96 875.991C861.604 882.236 861.092 888.568 860.417 894.992C857.274 924.898 843.68 948.29 823.917 966.005M861.96 875.991C968.417 820.491 861.96 706.991 860.417 631.491C857.991 512.798 929.417 446.991 990.417 482.491C1051.42 517.991 982.646 588.228 978.417 625.992C971.417 688.492 1005.75 745.378 1008.92 796.491C1015.92 909.491 889.417 993.991 823.917 966.005M378.564 974C391.942 978.751 400.053 980.375 416.485 980" stroke="black" stroke-width="14" stroke-linecap="round"/>
<ellipse cx="66.1871" cy="587.719" rx="14.5" ry="11.5" transform="rotate(9.42312 66.1871 587.719)" fill="#FFC9C9"/>
<ellipse cx="68.9304" cy="630.047" rx="14.5" ry="11.5" transform="rotate(2.19679 68.9304 630.047)" fill="#FFC9C9"/>
<ellipse cx="88.3913" cy="561.378" rx="14.5" ry="11.5" transform="rotate(44.8221 88.3913 561.378)" fill="#FFC9C9"/>
<ellipse cx="126.676" cy="555.858" rx="14.5" ry="11.5" transform="rotate(75.9481 126.676 555.858)" fill="#FFC9C9"/>
<path d="M133.999 589C123.528 576.5 101.219 577.742 93.4994 593C86.1655 607.495 87.5 624 102.999 631C118.498 638 142.795 599.5 133.999 589Z" fill="#FFC9C9"/>
<path d="M405 468.5C418.5 491.5 459.5 497 472.5 473.5" stroke="black" stroke-width="14"/>
</svg>
